X:1
T:E tra i pomi
T:E tra i pomi
T:Francesca Caccini
T:Source : Primo libro delle Musische a 1 e 2 voci---Firenze---Z.Pignoni---1618. Editor : André Vierendeels (15/06/15).
T:Notes : Original clefs : C1, F4 Editorial accidentals above the staff Figures in BC are notated inoriginal print Editorial suggestions : m6-7, m12-12, played by an instrument, idem for the ritornello. Third part of a 4-part sonetto, see also part 1 "La Pastorella", part 2 "Tra le gemme" and part 4 "Regi nan"
C:Francesca Caccini
%%score 1 { 2 | 3 }
L:1/8
Q:1/4=120
M:4/4
K:C
V:1 treble nm="Soprano" snm="S"
V:2 treble nm="BC" snm="BC"
V:3 bass 
V:1
 z4 B3 B | B>c d2 d2 .TA>G | A2 A>G ^F>G F>G | A2 B2 c/A/A B/c/c | d2 d2 Td3 ^c | d4 z4 | %6
w: E tra-|i _ _ po- mi'al gra-|na- * * * * * *|* to l'as- * * * * *|* si- mi- gli-|o|
 z4 z z/ G/ A>B | c4 TB2 B>A | A4 A2 Bc | d4 d>c TB>A | G2 A2 A4 | G2 z2 z4 | z3/2 G/ A>B c>d e2 | %13
w: chi ha _|_ la co- ro-|na'e de- gl'al- *|te- ri'e _ _ _|_ si- gno-|re,|ch'ha _ _ _ _ _|
 e2 Bc Td4 | c2 TB>.A G/D/E/F/ G/A/B/c/ | d4- d z E/F/G/A/4B/4 | A3 A A4 | G4 z4 | z8 | z8 | z8 |] %21
w: _ la co- ro-|na, e de gl'al- * * * * * * *|* * tri'e _ _ _ _|_ si- gno-|re||||
V:2
 z8 | z8 | z8 | z8 | z8 | d4 z d Tc>B | A2 B2 c4 | z8 | z8 | z8 | z8 | G>G A>B c>d e>f | g2 d2 c4 | %13
 z8 | z8 | z8 | z8 | G3 A Bc d2- | dc B2 AG AD | E^F G2 A4 | G8 |] %21
V:3
 G,,4 G,4 |"^6" G,2 ^F,2 E,4 | D,4 D,2 E,2 | F,2 G,2 .A,2 G,2 | F,2 D,2 A,,4 | D,4 D,2 E,2 | %6
 ^F,2 G,2 C,4 |"^#" C,2 D,2 E,4 |"^-natural""^-natural" A,,4 A,,2 E,2 |"^6" B,,4 C,2 D,2 | %10
"^b" E,2 C,2 D,4 | G,,G, F,2 E,2 D,2 |"^-natural" C,2 B,,2 A,,4 |"^6" E,4 B,,4 |"^#" C,2 D,2 E,4 | %15
 B,,4 C,3 D, | E,2 C,2 D,4 | G,,4 G,3 F, | E,3 D, C,3 B,, | A,,2 G,,2 D,4 | G,,8 |] %21

